images/transparency.svg

<?xml version="1.0" encoding="UTF-8" standalone="no"?>
<svg width="56px" height="38px" viewBox="0 0 56 38" version="1.1" xmlns="http://www.w3.org/2000/svg" xmlns:xlink="http://www.w3.org/1999/xlink">
    <!-- Generator: Sketch 3.6.1 (26313) - http://www.bohemiancoding.com/sketch -->
    <title>transparency</title>
    <desc>Created with Sketch.</desc>
    <defs></defs>
    <g id="Page-1" stroke="none" stroke-width="1" fill="none" fill-rule="evenodd">
        <g id="transparency">
            <path d="M13.7200781,12.372093 C13.3504687,12.372093 13.0521094,12.6690233 13.0521094,13.0348837 L13.0521094,37.3080465 C13.0521094,37.673907 13.3504687,37.9708372 13.7200781,37.9708372 C14.0879062,37.9708372 14.3880469,37.673907 14.3880469,37.3080465 L14.3880469,13.0348837 C14.3880469,12.6690233 14.0879062,12.372093 13.7200781,12.372093 L13.7200781,12.372093 Z M7.63978125,17.7919535 C7.2710625,17.7919535 6.97092188,18.0888837 6.97092188,18.4547442 L6.97092188,37.3080465 C6.97092188,37.673907 7.2710625,37.9708372 7.63978125,37.9708372 C8.0085,37.9708372 8.30775,37.673907 8.30775,37.3080465 L8.30775,18.4547442 C8.30775,18.0888837 8.0085,17.7919535 7.63978125,17.7919535 L7.63978125,17.7919535 Z M19.1324063,27.8555349 L19.1324063,37.3080465 C19.1324063,37.673907 19.4316563,37.9708372 19.800375,37.9708372 C20.1690938,37.9708372 20.4683438,37.673907 20.4683438,37.3080465 L20.4683438,27.8555349 C20.4683438,27.4896744 20.1690938,27.1927442 19.800375,27.1927442 C19.4316563,27.1927442 19.1324063,27.4896744 19.1324063,27.8555349 Z M25.2127031,32.1357674 L25.2127031,37.3080465 C25.2127031,37.673907 25.5119531,37.9708372 25.8806719,37.9708372 C26.2493906,37.9708372 26.5486406,37.673907 26.5486406,37.3080465 L26.5486406,32.1357674 C26.5486406,31.769907 26.2493906,31.4729767 25.8806719,31.4729767 C25.5119531,31.4729767 25.2127031,31.769907 25.2127031,32.1357674 Z M0.736546875,32.4767442 L0.736546875,37.1516279 C0.736546875,37.5174884 1.03579688,37.8144186 1.40540625,37.8144186 C1.774125,37.8144186 2.07248438,37.5174884 2.07248438,37.1516279 L2.07248438,32.4767442 C2.07248438,32.1108837 1.774125,31.8139535 1.40540625,31.8139535 C1.03579688,31.8139535 0.736546875,32.1108837 0.736546875,32.4767442 Z" id="Fill-165" fill="#278BC9"></path>
            <path d="M55.3249062,36.6337674 L41.8969531,23.309907 C44.2241562,20.8310698 45.661625,17.5188837 45.661625,13.8726512 C45.661625,6.22316279 39.3898437,0 31.6805937,0 C23.973125,0 17.703125,6.22316279 17.703125,13.8726512 C17.703125,21.5203721 23.973125,27.7444186 31.6805937,27.7444186 C35.2341875,27.7444186 38.4725,26.4108837 40.9413125,24.2360465 L54.3808437,37.5713953 C54.510875,37.7004186 54.681875,37.7649302 54.852875,37.7649302 C55.023875,37.7649302 55.194875,37.7004186 55.3249062,37.5713953 C55.5858594,37.3124651 55.5858594,36.8926977 55.3249062,36.6337674 L55.3249062,36.6337674 Z M19.0390625,13.8726512 C19.0390625,6.954 24.7105625,1.3255814 31.6805937,1.3255814 C38.6524062,1.3255814 44.3256875,6.954 44.3256875,13.8726512 C44.3256875,20.7895349 38.6524062,26.4188372 31.6805937,26.4188372 C24.7105625,26.4188372 19.0390625,20.7895349 19.0390625,13.8726512 Z" id="Fill-139" fill="#2E8CC7"></path>
        </g>
    </g>
</svg>

<svg width='56' height='38' viewBox='0 0 56 38' xmlns='http://www.w3.org/2000/svg'><g fill='none' fill-rule='evenodd'><path d='M13.72 12.372c-.37 0-.668.297-.668.663v24.273c0 .366.298.663.668.663.368 0 .668-.293.668-.66V13.036c0-.366-.3-.663-.668-.663zm-6.08 5.42c-.37 0-.67.297-.67.663v18.853c0 .366.3.663.67.663.37 0 .668-.293.668-.66V18.456c0-.366-.3-.663-.668-.663zm11.492 10.064v9.452c0 .366.3.663.668.663.37 0 .668-.293.668-.66v-9.45c0-.366-.3-.663-.668-.663-.368 0-.668.297-.668.663zm6.08 4.28v5.172c0 .366.3.663.67.663.367 0 .667-.293.667-.66v-5.17c0-.366-.3-.663-.67-.663-.37 0-.67.297-.67.663zm-24.475.34v4.676c0 .365.3.662.668.662.37 0 .667-.297.667-.662v-4.675c0-.366-.298-.663-.667-.663-.37 0-.668.297-.668.663z' fill='#278BC9'/><path d='M55.325 36.634L41.897 23.31c2.327-2.48 3.765-5.79 3.765-9.437C45.662 6.223 39.39 0 31.682 0 23.97 0 17.7 6.223 17.7 13.873c0 7.647 6.27 13.87 13.98 13.87 3.552 0 6.79-1.332 9.26-3.507L54.38 37.57c.13.13.3.195.47.195.172 0 .343-.065.473-.194.26-.255.26-.674 0-.933zM19.04 13.874c0-6.92 5.67-12.548 12.64-12.548 6.972 0 12.646 5.628 12.646 12.547 0 6.917-5.674 12.546-12.645 12.546-6.97 0-12.64-5.63-12.64-12.55z' fill='#2E8CC7'/></g></svg>
